src/lib/packages/icons/src/assets/filled/message-check.svg

<svg width="24" height="24" viewBox="0 0 24 24" fill="none" xmlns="http://www.w3.org/2000/svg">
<path d="M14 17C14 17.222 14.013 17.444 14.041 17.661C14.056 17.776 13.9801 18 13.7461 18H6L3 21V6C3 4 4 3 6 3H18C20 3 21 4 21 6V11.979C21 12.188 20.7959 12.3231 20.5969 12.2581C20.0959 12.0921 19.557 12 19 12C16.24 12 14 14.24 14 17ZM21.53 14.803C21.237 14.51 20.762 14.51 20.469 14.803L17.666 17.606L16.5291 16.47C16.2361 16.177 15.761 16.177 15.468 16.47C15.175 16.763 15.175 17.238 15.468 17.531L17.135 19.198C17.281 19.344 17.473 19.418 17.665 19.418C17.857 19.418 18.0491 19.345 18.1951 19.198L21.5281 15.865C21.8231 15.571 21.823 15.096 21.53 14.803Z" fill="currentColor"/>
</svg>

<svg xmlns="http://www.w3.org/2000/svg" width="24" height="24" fill="none"><path fill="currentColor" d="M14 17c0 .222.013.444.041.661.015.115-.06.339-.295.339H6l-3 3V6c0-2 1-3 3-3h12c2 0 3 1 3 3v5.979c0 .209-.204.344-.403.28A5.079 5.079 0 0 0 19 12c-2.76 0-5 2.24-5 5Zm7.53-2.197a.75.75 0 0 0-1.061 0l-2.803 2.803-1.137-1.136a.75.75 0 0 0-1.061 1.061l1.667 1.667a.748.748 0 0 0 1.06 0l3.333-3.333a.75.75 0 0 0 .002-1.062Z"/></svg>
